X:1
T: J. H. Alexander
C:Hector MacAndrew
R:Reel
Q: 232
K:Eb
M:4/4
L:1/8
|:F|E1/2E1/2E DE B,E G,E|DE FG AF DF|E1/2E1/2E DE CE B,E|DB, AF GE EF|
E1/2E1/2E DE B,E G,E|DE FG AF DF|E1/2E1/2E DE CE B,E|DB, AF GE EA|
GE GB cB AG|AG FE DB, DA|GE GB cA FE|DF B,A GE E2|
gf de de cB|AG FE DB, FD|E1/2E1/2E DE CE B,E|DB, AF GE E:|
